assets/icons/traton/print_inactive.svg

<svg xmlns="http://www.w3.org/2000/svg" width="32" height="32" viewBox="0 0 32 32" fill="none">
<path d="M7.73535 11.9775L5.23047 11.9775L4 14.3877L4 21.9775L7 21.9775L7 16.9775L12.7353 16.9775L14.7353 18.9775L9 18.9775L9 27.9775L23 27.9775L23 27.2422L25 29.2422L25 29.9775L7 29.9775L7 23.9775L2 23.9775L2 13.9072L4 9.97754L5.73535 9.97754L7.73535 11.9775ZM28.0215 26.6074L26.6074 28.0215L3.99414 5.4082L5.4082 3.99414L28.0215 26.6074ZM25 9.97754L28 9.97754L30 13.9072L30 23.9775L27.8613 23.9775L28.0215 23.8174L26.1816 21.9775L28 21.9775L28 14.3877L26.7695 11.9775L16.1816 11.9775L14.1816 9.97754L23 9.97754L23 5.97754L10.1816 5.97754L8.18164 3.97754L25 3.97754L25 9.97754ZM25 20.7959L21.1816 16.9775L25 16.9775L25 20.7959Z" fill="#001D21" />
</svg>

<svg xmlns="http://www.w3.org/2000/svg" fill="none" viewBox="0 0 32 32"><path fill="#001d21" d="M7.7 12H5.2L4 14.4V22h3v-5h5.7l2 2H9v9h14v-.8l2 2v.8H7v-6H2V14l2-4h1.7zM28 26.6 26.6 28 4 5.4 5.4 4zM25 10h3l2 4v10h-2.1l.1-.2-1.8-1.8H28v-7.6L26.8 12H16.2l-2-2H23V6H10.2l-2-2H25zm0 10.8L21.2 17H25z"/></svg>
